svgs/sharp-light/building-ngo.svg

<svg xmlns="http://www.w3.org/2000/svg" viewBox="0 0 384 512"><!--! Font Awesome Pro 6.4.2 by @fontawesome - https://fontawesome.com License - https://fontawesome.com/license (Commercial License) Copyright 2023 Fonticons, Inc. --><path d="M352 32H32V48H0V32 0H32 352h32V32 48H352V32zM0 240H32V480h96V400 368h32 64 32v32 80h96V240h32V480v32H352 256 224 160 128 32 0V480 240zM224 480V400H160v80h64zM32 80H48h8 9.9l4.4 8.8L96 140.2V96 80h32V96v96 16H112h-8H94.1l-4.4-8.8L64 147.8V192v16H32V192 96 80zm136 0h48 16v32H216 184v64h16V160 144h32v16 32 16H216 168 152V192 96 80h16zm120 48v32c0 8.8 7.2 16 16 16s16-7.2 16-16V128c0-8.8-7.2-16-16-16s-16 7.2-16 16zm16-48c26.5 0 48 21.5 48 48v32c0 26.5-21.5 48-48 48s-48-21.5-48-48V128c0-26.5 21.5-48 48-48zM288 240h16v16 64 16H288 224 208V320 256 240h16 64zm-48 32v32h32V272H240zM96 240h64 16v16 64 16H160 96 80V320 256 240H96zm16 64h32V272H112v32z"/></svg>

<svg xmlns="http://www.w3.org/2000/svg" viewBox="0 0 384 512"><!--! Font Awesome Pro 6.6.0 by @fontawesome - https://fontawesome.com License - https://fontawesome.com/license (Commercial License) Copyright 2024 Fonticons, Inc. --><path d="M352 32L32 32l0 16L0 48 0 32 0 0 32 0 352 0l32 0 0 32 0 16-32 0 0-16zM0 240l32 0 0 240 96 0 0-80 0-32 32 0 64 0 32 0 0 32 0 80 96 0 0-240 32 0 0 240 0 32-32 0-96 0-32 0-64 0-32 0-96 0L0 512l0-32L0 240zM224 480l0-80-64 0 0 80 64 0zM32 80l16 0 8 0 9.9 0 4.4 8.8L96 140.2 96 96l0-16 32 0 0 16 0 96 0 16-16 0-8 0-9.9 0-4.4-8.8L64 147.8 64 192l0 16-32 0 0-16 0-96 0-16zm136 0l48 0 16 0 0 32-16 0-32 0 0 64 16 0 0-16 0-16 32 0 0 16 0 32 0 16-16 0-48 0-16 0 0-16 0-96 0-16 16 0zm120 48l0 32c0 8.8 7.2 16 16 16s16-7.2 16-16l0-32c0-8.8-7.2-16-16-16s-16 7.2-16 16zm16-48c26.5 0 48 21.5 48 48l0 32c0 26.5-21.5 48-48 48s-48-21.5-48-48l0-32c0-26.5 21.5-48 48-48zM288 240l16 0 0 16 0 64 0 16-16 0-64 0-16 0 0-16 0-64 0-16 16 0 64 0zm-48 32l0 32 32 0 0-32-32 0zM96 240l64 0 16 0 0 16 0 64 0 16-16 0-64 0-16 0 0-16 0-64 0-16 16 0zm16 64l32 0 0-32-32 0 0 32z"/></svg>
